X: 091
Q: "Slowish"
M: 6/8
L: 1/8
K: A
V: 1
c/d/ |\
{cd}e3 cAE | (F/G/A)F E2E | ECE ECE | {cd}~d2c Bcd |\
e3 cAE | FGA EBd | cec dBG | {G}AAA A2 :|
E |\
{g}a2e | efe | eac' {f}e2d | cea (f/e/)(d/c/)(B/A/) | BeA {A}GFE |\
V: 2 clef=bass middle=d
z |\
cea cea | dfa egb | Ace EBe | Ace A2 :|
z |\


